svg/white/safe.svg

<svg height="32" viewBox="0 0 32 32" width="32" xmlns="http://www.w3.org/2000/svg"><path d="m16 32c-8.836556 0-16-7.163444-16-16s7.163444-16 16-16 16 7.163444 16 16-7.163444 16-16 16zm10.9889362-9.3288042-.0007582-12.67277263-11.0024294-6.33941917-.0151642.00834034-10.96527691 6.33638636v12.6697398l10.97437541 6.3227384.0015165.0007582zm-4.8700023-2.0259452-1.8765773-1.0766625-4.1883688 2.4323474c-.0242628.014406-.0545913.014406-.0796124 0l-4.8055542-2.7849165-.0015164-4.8449813-4.22173016-2.420216 8.99847226-5.27488804c.0075822-.00454928.0166807-.00454928.0242628 0l8.3570241 4.77825854-1.4785154.8545061-6.8747176-3.95559741-6.09754921 3.57876551 2.11541441 1.2154155 3.9859259-2.3186155.0022746-.0015164 4.8700023 2.7849165-.0022746 4.6099352 4.1512163 2.3769979-.0015164.0705138-9.015153 5.2635149-8.35854043-4.7721929 1.46335115-.8567807 6.88078328 3.9464989zm-4.8138946-5.5000774c0-.0113732 0-.0227463-.0007582-.0341195 0-.0075822-.0007582-.0144061-.0007582-.0219882 0-.0037911 0-.0083404-.0007582-.0121314-.0007582-.0083404-.0007582-.0166807-.0015164-.0250211 0-.0030328 0-.0053075-.0007583-.0083403-.0007582-.0090986-.0015164-.0181971-.0022746-.0265375 0-.0022746 0-.0045492-.0007582-.0068239-.0007582-.0090985-.0022747-.0189553-.0030329-.0280539 0-.0015164 0-.003791-.0007582-.0053075-.0015164-.0098567-.0022746-.0197135-.003791-.028812 0-.0015165 0-.0022747-.0007583-.0037911-.0015164-.0098568-.0030328-.0197135-.0045492-.0295703 0-.0007582 0-.0022747-.0007582-.0030329-.0015165-.0098567-.0037911-.0197135-.0060658-.0303285 0-.0007582 0-.0015164-.0007582-.0022746-.0022746-.0098568-.0045492-.0204718-.0068239-.0303286 0-.0007582 0-.0015164 0-.0015164-.0022746-.010615-.0045493-.0204717-.0075821-.0303285 0-.0007582 0-.0007582 0-.0015164-.0022747-.010615-.0053075-.0204718-.0083404-.0310868v-.0007582c-.0030328-.010615-.0060657-.0204717-.0090985-.0310867 0 0 0 0 0-.0007582-.0030329-.010615-.0060657-.0204718-.0098568-.0303285-.0030328-.0098568-.0068239-.0204718-.010615-.0303286-.003791-.0098567-.0075821-.0204717-.0113732-.0303285-.003791-.0098568-.0075821-.0197135-.0121314-.0295703-.003791-.0098568-.0083403-.0197135-.0128896-.0295703s-.0090985-.0197135-.0136478-.0288121c-.0045493-.0098568-.0090986-.0189553-.0136479-.0288121 0 0 0 0 0-.0007582-.0045492-.0090986-.0098567-.0189553-.014406-.0280539v-.0007582c-.0045493-.0090986-.0098568-.0181971-.0151643-.0272957 0 0 0-.0007582-.0007582-.0007582-.0053075-.0090985-.010615-.0181971-.0151642-.0265374 0 0-.0007583-.0007583-.0007583-.0007583-.0053074-.0090985-.0106149-.0174389-.0159224-.0257792 0-.0007582-.0007582-.0007582-.0007582-.0015164-.0053075-.0083404-.010615-.0166807-.0166807-.0250211 0-.0007582-.0007582-.0007582-.0007582-.0015164-.0053075-.0083403-.0113732-.0166807-.0166807-.0242628-.0007582-.0007582-.0007582-.0015164-.0015165-.0015164-.0053074-.0083404-.0113731-.0159225-.0174389-.0242628-.0007582-.0007583-.0007582-.0015165-.0015164-.0022747-.0060657-.0075821-.0113732-.0159225-.0174389-.0235046-.0007582-.0007582-.0015164-.0015164-.0015164-.0022746-.0060657-.0075822-.0121314-.0151643-.0181971-.0227464-.0007582-.0007582-.0015164-.0015164-.0022747-.0022747-.0060657-.0075821-.0121314-.014406-.0181971-.0219881-.0007582-.0007582-.0015164-.0015165-.0022746-.0022747-.0060657-.0068239-.0121314-.014406-.0189553-.0212299-.0007582-.0007582-.0015165-.0015165-.0022747-.0030329-.0060657-.0068239-.0128896-.0136478-.0189553-.0204717-.0007582-.0007582-.0015164-.0015165-.0022746-.0030329-.0060657-.0068239-.0128897-.0136478-.0189554-.0204717-.0007582-.0007583-.0015164-.0022747-.0030328-.0030329-.0068239-.0068239-.0128896-.0128896-.0197136-.0197135-.0007582-.0007582-.0022746-.0022747-.0030328-.0030329-.0068239-.0060657-.0136478-.0128896-.0197135-.0189553-.0007583-.0007582-.0022747-.0022746-.0030329-.0030329-.0068239-.0060657-.0136478-.0121314-.0204718-.0181971-.0007582-.0007582-.0022746-.0015164-.0030328-.0030328-.0068239-.0060657-.0136478-.0121314-.02123-.0181971-.0007582-.0007583-.0022746-.0015165-.0030328-.0030329-.0068239-.0060657-.0144061-.0121314-.02123-.0174389-.0007582-.0007582-.0022746-.0015164-.0030328-.0022746-.0075822-.0060657-.0144061-.0113732-.0219882-.0174389-.0007582-.0007582-.0022747-.0015165-.0030329-.0022747-.0075821-.0053075-.0151642-.0113732-.0227464-.0166807-.0007582-.0007582-.0022746-.0015164-.0030328-.0022746-.0075821-.0053075-.0151643-.0113732-.0227464-.0166807-.0007582-.0007582-.0015164-.0015164-.0030329-.0022746-.0075821-.0053075-.0159224-.010615-.0235046-.0159225-.0007582-.0007582-.0015164-.0007582-.0022746-.0015164-.0083403-.0053075-.0166807-.010615-.0242628-.0159225-.0007582-.0007582-.0015164-.0007582-.0022747-.0015164-.0083403-.0053075-.0166806-.010615-.025021-.0151643-.0007582 0-.0007582-.0007582-.0015164-.0007582-.0083404-.0053075-.0174389-.0098568-.0265375-.0151643-.0007582 0-.0007582-.0007582-.0015164-.0007582-.0090985-.0053075-.0181971-.0098567-.0272957-.0151642h-.0007582c-.1872786-.0993259-.4003365-.1554337-.6270422-.1554337-.7415323 0-1.342037.6005047-1.342037 1.3420371 0 .5421223.3260316 1.0311697.8264522 1.2389201l-.580033 2.6522292h1.1395942 1.0539161l-.5845822-2.6507128c.501937-.2092668.8287268-.6990724.8287268-1.241953z" fill="#fff"/></svg>

<?xml version="1.0" encoding="UTF-8"?>
<svg width="32px" height="32px" viewBox="0 0 32 32" version="1.1" xmlns="http://www.w3.org/2000/svg" xmlns:xlink="http://www.w3.org/1999/xlink">
    <!-- Generator: Sketch 50 (54983) - http://www.bohemiancoding.com/sketch -->
    <title>white/safe</title>
    <desc>Created with Sketch.</desc>
    <defs></defs>
    <g id="white/safe" stroke="none" stroke-width="1" fill="none" fill-rule="evenodd">
        <path d="M16,32 C7.163444,32 0,24.836556 0,16 C0,7.163444 7.163444,0 16,0 C24.836556,0 32,7.163444 32,16 C32,24.836556 24.836556,32 16,32 Z M26.9889362,22.6711958 L26.988178,9.99842317 L15.9857486,3.659004 L15.9705844,3.66734434 L5.00530749,10.0037307 L5.00530749,22.6734705 L15.9796829,28.9962089 L15.9811994,28.9969671 L26.9889362,22.6711958 Z M22.1189339,20.6452506 L20.2423566,19.5685881 L16.0539878,22.0009355 C16.029725,22.0153415 15.9993965,22.0153415 15.9743754,22.0009355 L11.1688212,19.216019 L11.1673048,14.3710377 L6.94557464,11.9508217 L15.9440469,6.67593366 C15.9516291,6.67138438 15.9607276,6.67138438 15.9683097,6.67593366 L24.3253338,11.4541922 L22.8468184,12.3086983 L15.9721008,8.35310089 L9.87455159,11.9318664 L11.989966,13.1472819 L15.9758919,10.8286664 L15.9781665,10.82715 L20.8481688,13.6120665 L20.8458942,18.2220017 L24.9971105,20.5989996 L24.9955941,20.6695134 L15.9804411,25.9330283 L7.62190067,21.1608354 L9.08525182,20.3040547 L15.9660351,24.2505536 L22.1189339,20.6452506 Z M17.3050393,15.1451732 C17.3050393,15.1338 17.3050393,15.1224269 17.3042811,15.1110537 C17.3042811,15.1034715 17.3035229,15.0966476 17.3035229,15.0890655 C17.3035229,15.0852744 17.3035229,15.0807251 17.3027647,15.0769341 C17.3020065,15.0685937 17.3020065,15.0602534 17.3012483,15.051913 C17.3012483,15.0488802 17.3012483,15.0466055 17.30049,15.0435727 C17.2997318,15.0344741 17.2989736,15.0253756 17.2982154,15.0170352 C17.2982154,15.0147606 17.2982154,15.012486 17.2974572,15.0102113 C17.296699,15.0011128 17.2951825,14.991256 17.2944243,14.9821574 C17.2944243,14.980641 17.2944243,14.9783664 17.2936661,14.9768499 C17.2921497,14.9669932 17.2913915,14.9571364 17.2898751,14.9480379 C17.2898751,14.9465214 17.2898751,14.9457632 17.2891168,14.9442468 C17.2876004,14.93439 17.286084,14.9245333 17.2845676,14.9146765 C17.2845676,14.9139183 17.2845676,14.9124018 17.2838094,14.9116436 C17.2822929,14.9017869 17.2800183,14.8919301 17.2777436,14.8813151 C17.2777436,14.8805569 17.2777436,14.8797987 17.2769854,14.8790405 C17.2747108,14.8691837 17.2724362,14.8585687 17.2701615,14.8487119 C17.2701615,14.8479537 17.2701615,14.8471955 17.2701615,14.8471955 C17.2678869,14.8365805 17.2656122,14.8267238 17.2625794,14.816867 C17.2625794,14.8161088 17.2625794,14.8161088 17.2625794,14.8153506 C17.2603047,14.8047356 17.2572719,14.7948788 17.254239,14.7842638 C17.254239,14.7842638 17.254239,14.7835056 17.254239,14.7835056 C17.2512062,14.7728906 17.2481733,14.7630339 17.2451405,14.7524189 C17.2451405,14.7524189 17.2451405,14.7524189 17.2451405,14.7516607 C17.2421076,14.7410457 17.2390748,14.7311889 17.2352837,14.7213322 C17.2322509,14.7114754 17.2284598,14.7008604 17.2246687,14.6910036 C17.2208777,14.6811469 17.2170866,14.6705319 17.2132955,14.6606751 C17.2095045,14.6508183 17.2057134,14.6409616 17.2011641,14.6311048 C17.1973731,14.621248 17.1928238,14.6113913 17.1882745,14.6015345 C17.1837252,14.5916777 17.179176,14.581821 17.1746267,14.5727224 C17.1700774,14.5628656 17.1655281,14.5537671 17.1609788,14.5439103 C17.1609788,14.5439103 17.1609788,14.5439103 17.1609788,14.5431521 C17.1564296,14.5340535 17.1511221,14.5241968 17.1465728,14.5150982 C17.1465728,14.5150982 17.1465728,14.51434 17.1465728,14.51434 C17.1420235,14.5052414 17.136716,14.4961429 17.1314085,14.4870443 C17.1314085,14.4870443 17.1314085,14.4862861 17.1306503,14.4862861 C17.1253428,14.4771876 17.1200353,14.468089 17.1154861,14.4597487 C17.1154861,14.4597487 17.1147278,14.4589904 17.1147278,14.4589904 C17.1094204,14.4498919 17.1041129,14.4415515 17.0988054,14.4332112 C17.0988054,14.432453 17.0980472,14.432453 17.0980472,14.4316948 C17.0927397,14.4233544 17.0874322,14.4150141 17.0813665,14.4066737 C17.0813665,14.4059155 17.0806083,14.4059155 17.0806083,14.4051573 C17.0753008,14.396817 17.0692351,14.3884766 17.0639276,14.3808945 C17.0631694,14.3801363 17.0631694,14.3793781 17.0624111,14.3793781 C17.0571037,14.3710377 17.051038,14.3634556 17.0449722,14.3551153 C17.044214,14.354357 17.044214,14.3535988 17.0434558,14.3528406 C17.0373901,14.3452585 17.0320826,14.3369181 17.0260169,14.329336 C17.0252587,14.3285778 17.0245005,14.3278196 17.0245005,14.3270614 C17.0184348,14.3194792 17.0123691,14.3118971 17.0063034,14.304315 C17.0055452,14.3035568 17.004787,14.3027986 17.0040287,14.3020403 C16.997963,14.2944582 16.9918973,14.2876343 16.9858316,14.2800522 C16.9850734,14.279294 16.9843152,14.2785357 16.983557,14.2777775 C16.9774913,14.2709536 16.9714256,14.2633715 16.9646017,14.2565476 C16.9638435,14.2557894 16.9630852,14.2550311 16.962327,14.2535147 C16.9562613,14.2466908 16.9494374,14.2398669 16.9433717,14.233043 C16.9426135,14.2322848 16.9418553,14.2315265 16.9410971,14.2300101 C16.9350314,14.2231862 16.9282074,14.2163623 16.9221417,14.2095384 C16.9213835,14.2087801 16.9206253,14.2072637 16.9191089,14.2065055 C16.912285,14.1996816 16.9062193,14.1936159 16.8993953,14.186792 C16.8986371,14.1860338 16.8971207,14.1845173 16.8963625,14.1837591 C16.8895386,14.1776934 16.8827147,14.1708695 16.876649,14.1648038 C16.8758907,14.1640456 16.8743743,14.1625292 16.8736161,14.1617709 C16.8667922,14.1557052 16.8599683,14.1496395 16.8531443,14.1435738 C16.8523861,14.1428156 16.8508697,14.1420574 16.8501115,14.140541 C16.8432876,14.1344753 16.8364637,14.1284096 16.8288815,14.1223439 C16.8281233,14.1215856 16.8266069,14.1208274 16.8258487,14.119311 C16.8190248,14.1132453 16.8114426,14.1071796 16.8046187,14.1018721 C16.8038605,14.1011139 16.8023441,14.1003557 16.8015859,14.0995975 C16.7940037,14.0935318 16.7871798,14.0882243 16.7795977,14.0821586 C16.7788395,14.0814004 16.777323,14.0806421 16.7765648,14.0798839 C16.7689827,14.0745764 16.7614006,14.0685107 16.7538184,14.0632032 C16.7530602,14.062445 16.7515438,14.0616868 16.7507856,14.0609286 C16.7432035,14.0556211 16.7356213,14.0495554 16.7280392,14.0442479 C16.727281,14.0434897 16.7265228,14.0427315 16.7250063,14.0419733 C16.7174242,14.0366658 16.7090839,14.0313583 16.7015017,14.0260508 C16.7007435,14.0252926 16.6999853,14.0252926 16.6992271,14.0245344 C16.6908868,14.0192269 16.6825464,14.0139194 16.6749643,14.0086119 C16.6742061,14.0078537 16.6734479,14.0078537 16.6726896,14.0070955 C16.6643493,14.001788 16.656009,13.9964805 16.6476686,13.9919312 C16.6469104,13.9919312 16.6469104,13.991173 16.6461522,13.991173 C16.6378118,13.9858655 16.6287133,13.9813162 16.6196147,13.9760087 C16.6188565,13.9760087 16.6188565,13.9752505 16.6180983,13.9752505 C16.6089998,13.969943 16.5999012,13.9653938 16.5908026,13.9600863 C16.5908026,13.9600863 16.5900444,13.9600863 16.5900444,13.9600863 C16.4027658,13.8607604 16.1897079,13.8046526 15.9630022,13.8046526 C15.2214699,13.8046526 14.6209652,14.4051573 14.6209652,15.1466897 C14.6209652,15.688812 14.9469968,16.1778594 15.4474174,16.3856098 L14.8673844,19.037839 L16.0069786,19.037839 L17.0608947,19.037839 L16.4763125,16.3871262 C16.9782495,16.1778594 17.3050393,15.6880538 17.3050393,15.1451732 Z" id="Combined-Shape" fill="#FFFFFF" fill-rule="nonzero"></path>
        <g id="SafeCoin-(SAFE)" transform="translate(5.000000, 3.652938)"></g>
    </g>
</svg>
